app/assets/v2/images/results/bounty-hunters-hired.svg

<svg fill="none" height="215" viewBox="0 0 215 215" width="215" xmlns="http://www.w3.org/2000/svg"><path clip-rule="evenodd" d="m121.244 93.4914c7.646-4.855 12.721-13.3981 12.721-23.1264 0-6.5139-2.275-12.4964-6.074-17.1962l-6.197-3.0984-15.103-1.4159-14.6309 1.8879-7.5477 3.7738c-3.2685 4.5091-5.1955 10.0539-5.1955 16.0488 0 9.7283 5.0747 18.2714 12.7214 23.1264z" fill="#00ed92" fill-rule="evenodd"/><path clip-rule="evenodd" d="m121.244 93.4914c7.646-4.855 12.721-13.3981 12.721-23.1264 0-6.5139-2.275-12.4964-6.074-17.1962l-6.197-3.0984-15.103-1.4159-14.6309 1.8879-7.5477 3.7738c-3.2685 4.5091-5.1955 10.0539-5.1955 16.0488 0 9.7283 5.0747 18.2714 12.7214 23.1264z" fill="#bbafd0" fill-rule="evenodd"/><path clip-rule="evenodd" d="m117.734 60.3338c0 3.4974-2.851 6.3333-6.367 6.3333-3.517 0-6.367-2.8359-6.367-6.3338 0-3.4978 2.851-6.3333 6.367-6.3333s6.366 2.836 6.366 6.3333zm4.549 9.4682c0 .6792-.271 1.3306-.754 1.8109-.483.4802-1.138.75-1.821.75-.682 0-1.337-.2698-1.82-.75-.483-.4803-.754-1.1317-.754-1.8109 0-.6791.271-1.3305.754-1.8107s1.137-.75 1.82-.75 1.338.2698 1.82.75c.483.4802.754 1.1316.754 1.8107" fill="#fff" fill-rule="evenodd"/><path d="m93.8193 176.527 9.0597 10.037c1.986 2.199 5.438 2.199 7.423 0l9.06-10.037c2.449-2.713 3.223-6.545 2.019-9.996l-10.422-29.864h-8.737l-10.4211 29.864c-1.2041 3.451-.4302 7.283 2.0184 9.996z" fill="#00ed92"/><path d="m93.8193 176.527 9.0597 10.037c1.986 2.199 5.438 2.199 7.423 0l9.06-10.037c2.449-2.713 3.223-6.545 2.019-9.996l-10.422-29.864h-8.737l-10.4211 29.864c-1.2041 3.451-.4302 7.283 2.0184 9.996z" fill="#00ed92"/><g fill="#180041"><path clip-rule="evenodd" d="m100.092 133.667h12.998l11.123 31.876c1.566 4.485.559 9.467-2.624 12.994l-9.06 10.037c-3.176 3.519-8.7 3.519-11.877 0l-9.0596-10.037c-3.1832-3.527-4.1892-8.509-2.624-12.994zm4.261 6-9.7196 27.853c-.8429 2.415-.3011 5.098 1.4129 6.997l9.0597 10.037c.794.879 2.175.879 2.969 0l9.06-10.037c1.714-1.899 2.256-4.582 1.413-6.997l-9.719-27.853z" fill-rule="evenodd"/><path clip-rule="evenodd" d="m91.9383 93.4914h29.3057c7.646-4.855 12.721-13.3981 12.721-23.1264 0-6.5139-2.275-12.4964-6.074-17.1962l-6.197-3.0984-15.103-1.4159-14.6309 1.8879-7.5477 3.7738c-3.2685 4.5091-5.1956 10.0539-5.1956 16.0488 0 9.7283 5.0748 18.2714 12.7215 23.1264zm36.0267-23.1264c0 11.8046-9.569 21.3741-21.374 21.3741-11.8046 0-21.3742-9.5695-21.3742-21.3741s9.5696-21.3742 21.3742-21.3742c11.805 0 21.374 9.5696 21.374 21.3742z" fill-rule="evenodd"/><path clip-rule="evenodd" d="m135.742 115.118c-.699 2.096.433 4.361 2.528 5.061l14.943 4.986c2.569.857 4.988 2.114 7.166 3.723 7.259 5.364 11.187 14.131 10.358 23.119l-1.264 13.698c-.202 2.2 1.416 4.147 3.616 4.35s4.148-1.416 4.351-3.615l1.263-13.699c1.086-11.774-4.06-23.26-13.57-30.287-2.854-2.108-6.022-3.755-9.388-4.878l-14.943-4.986c-2.095-.699-4.361.433-5.06 2.528z" fill-rule="evenodd"/><path clip-rule="evenodd" d="m78.5202 115.118c.6993 2.096-.4326 4.361-2.5282 5.061l-14.943 4.986c-2.5692.857-4.9873 2.114-7.1656 3.723-7.2589 5.364-11.1869 14.131-10.358 23.119l1.2633 13.698c.2029 2.2-1.4159 4.147-3.6157 4.35s-4.1476-1.416-4.3505-3.615l-1.2633-13.699c-1.0859-11.774 4.0602-23.26 13.5699-30.287 2.8538-2.108 6.0218-3.755 9.3876-4.878l14.9431-4.986c2.0955-.699 4.3611.433 5.0604 2.528z" fill-rule="evenodd"/><path clip-rule="evenodd" d="m61.7623 48.8697c1.6099-.3915 3.2324.5964 3.6238 2.2063l3.8505 15.8377c.3914 1.61-.5964 3.2324-2.2064 3.6238-1.6099.3914-3.2324-.5964-3.6238-2.2064l-3.8505-15.8376c-.3914-1.61.5964-3.2324 2.2064-3.6238z" fill-rule="evenodd"/><path clip-rule="evenodd" d="m152.517 32.3141c1.639.2412 2.773 1.7656 2.531 3.4048l-4.93 33.5097c-.242 1.6392-1.766 2.7725-3.405 2.5313s-2.773-1.7656-2.531-3.4048l4.93-33.5097c.241-1.6392 1.766-2.7725 3.405-2.5313z" fill-rule="evenodd"/><path clip-rule="evenodd" d="m159.899 78.3603c1.878-8.0484-5.458-15.2157-13.461-13.1506l-1.839.4747 1.499 5.8096 1.84-.4746c3.637-.9387 6.972 2.3191 6.118 5.9775l-2.589 11.0961c-.395 1.692-1.64 3.0578-3.288 3.6073l-7.083 2.3609 1.897 5.6921 7.083-2.3609c3.627-1.2088 6.365-4.2135 7.234-7.936z" fill-rule="evenodd"/><path clip-rule="evenodd" d="m53.283 78.3603c-1.878-8.0484 5.4585-15.2157 13.4609-13.1506l1.8394.4747-1.4993 5.8096-1.8394-.4746c-3.6375-.9387-6.9722 2.3191-6.1186 5.9775l2.5891 11.0961c.3948 1.692 1.6397 3.0578 3.2881 3.6073l7.0829 2.3609-1.8974 5.6921-7.0829-2.3609c-3.6263-1.2088-6.3652-4.2135-7.2337-7.936z" fill-rule="evenodd"/><path clip-rule="evenodd" d="m141.65 79.4788-7.078 22.9322c-.403 1.55-.607 3.145-.607 4.746v4.196c0 5.213-4.226 9.439-9.439 9.439l-34.837.001c-5.5229 0-10-4.478-10-10v-3.161c0-1.914-.2749-3.819-.8162-5.655l-6.2972-21.3617c-1.5403-5.2252-2.4831-10.7357-1.1666-16.0217 4.017-16.1283 17.8078-28.6779 35.418-28.6822 17.299-.0043 32.736 13.0068 35.827 29.8675.834 4.5512.159 9.2216-1.004 13.6999zm.626 25.0952 7.072-22.9087.045-.1753c1.288-4.9574 2.268-10.9411 1.13-17.1534-3.782-20.6339-22.51-36.4304-43.698-36.4252-21.7325.0053-38.3877 15.5121-43.1788 34.7488-1.8358 7.3707-.415 14.549 1.2559 20.2171l6.2972 21.3617c.3247 1.102.4897 2.245.4897 3.393v3.161c0 9.941 8.0589 18 18 18l34.837-.001c9.631 0 17.439-7.807 17.439-17.439v-4.196c0-.87.105-1.738.311-2.583z" fill-rule="evenodd"/><path clip-rule="evenodd" d="m66.5971 63.1176c20.6874-23.1373 56.4949-24.3457 78.6949-2.6557l2.569 2.5095-4.193 4.2917-2.569-2.5095c-19.755-19.3015-51.6197-18.2262-70.0291 2.3633z" fill-rule="evenodd"/><path clip-rule="evenodd" d="m137.269 109.354h-59.9399v-6h59.9399z" fill-rule="evenodd"/><path clip-rule="evenodd" d="m141.517 96.4913h-67.4915v-6h67.4915z" fill-rule="evenodd"/><path d="m100.226 139h12.548c4.543 0 8.226-3.613 8.226-8.07v-3.93h-29v3.93c0 4.457 3.683 8.07 8.226 8.07z"/></g><path d="m115 127v3.963c0 1.125-.939 2.037-2.098 2.037h-12.804c-1.1585 0-2.098-.912-2.098-2.037v-3.963z" fill="#00ed92"/></svg>

<svg width="215" height="215" viewBox="0 0 215 215" fill="none" xmlns="http://www.w3.org/2000/svg">
<path fill-rule="evenodd" clip-rule="evenodd" d="M121.244 93.4914C128.89 88.6364 133.965 80.0933 133.965 70.365C133.965 63.8511 131.69 57.8686 127.891 53.1688L121.694 50.0704L106.591 48.6545L91.9601 50.5424L84.4124 54.3162C81.1439 58.8253 79.2169 64.3701 79.2169 70.365C79.2169 80.0933 84.2916 88.6364 91.9383 93.4914H121.244Z" fill="#00ED92"/>
<path fill-rule="evenodd" clip-rule="evenodd" d="M121.244 93.4914C128.89 88.6364 133.965 80.0933 133.965 70.365C133.965 63.8511 131.69 57.8686 127.891 53.1688L121.694 50.0704L106.591 48.6545L91.9601 50.5424L84.4124 54.3162C81.1439 58.8253 79.2169 64.3701 79.2169 70.365C79.2169 80.0933 84.2916 88.6364 91.9383 93.4914H121.244Z" fill="#BBAFD0"/>
<path fill-rule="evenodd" clip-rule="evenodd" d="M117.734 60.3338C117.734 63.8312 114.883 66.6671 111.367 66.6671C107.85 66.6671 105 63.8312 105 60.3333C105 56.8355 107.851 54 111.367 54C114.883 54 117.733 56.836 117.733 60.3333L117.734 60.3338ZM122.283 69.802C122.283 70.4812 122.012 71.1326 121.529 71.6129C121.046 72.0931 120.391 72.3629 119.708 72.3629C119.026 72.3629 118.371 72.0931 117.888 71.6129C117.405 71.1326 117.134 70.4812 117.134 69.802C117.134 69.1229 117.405 68.4715 117.888 67.9913C118.371 67.5111 119.025 67.2413 119.708 67.2413C120.391 67.2413 121.046 67.5111 121.528 67.9913C122.011 68.4715 122.282 69.1229 122.282 69.802" fill="white"/>
<path d="M93.8193 176.527L102.879 186.564C104.865 188.763 108.317 188.763 110.302 186.564L119.362 176.527C121.811 173.814 122.585 169.982 121.381 166.531L110.959 136.667H102.222L91.8009 166.531C90.5968 169.982 91.3707 173.814 93.8193 176.527Z" fill="#00ED92"/>
<path d="M93.8193 176.527L102.879 186.564C104.865 188.763 108.317 188.763 110.302 186.564L119.362 176.527C121.811 173.814 122.585 169.982 121.381 166.531L110.959 136.667H102.222L91.8009 166.531C90.5968 169.982 91.3707 173.814 93.8193 176.527Z" fill="#00ED92"/>
<path fill-rule="evenodd" clip-rule="evenodd" d="M100.092 133.667H113.09L124.213 165.543C125.779 170.028 124.772 175.01 121.589 178.537L112.529 188.574C109.353 192.093 103.829 192.093 100.652 188.574L91.5924 178.537C88.4092 175.01 87.4032 170.028 88.9684 165.543L100.092 133.667ZM104.353 139.667L94.6334 167.52C93.7905 169.935 94.3323 172.618 96.0463 174.517L105.106 184.554C105.9 185.433 107.281 185.433 108.075 184.554L117.135 174.517C118.849 172.618 119.391 169.935 118.548 167.52L108.829 139.667H104.353Z" fill="#180041"/>
<path fill-rule="evenodd" clip-rule="evenodd" d="M91.9383 93.4914H121.244C128.89 88.6364 133.965 80.0933 133.965 70.365C133.965 63.8511 131.69 57.8686 127.891 53.1688L121.694 50.0704L106.591 48.6545L91.9601 50.5424L84.4124 54.3162C81.1439 58.8253 79.2168 64.3701 79.2168 70.365C79.2168 80.0933 84.2916 88.6364 91.9383 93.4914ZM127.965 70.365C127.965 82.1696 118.396 91.7391 106.591 91.7391C94.7864 91.7391 85.2168 82.1696 85.2168 70.365C85.2168 58.5604 94.7864 48.9908 106.591 48.9908C118.396 48.9908 127.965 58.5604 127.965 70.365Z" fill="#180041"/>
<path fill-rule="evenodd" clip-rule="evenodd" d="M135.742 115.118C135.043 117.214 136.175 119.479 138.27 120.179L153.213 125.165C155.782 126.022 158.201 127.279 160.379 128.888C167.638 134.252 171.566 143.019 170.737 152.007L169.473 165.705C169.271 167.905 170.889 169.852 173.089 170.055C175.289 170.258 177.237 168.639 177.44 166.44L178.703 152.741C179.789 140.967 174.643 129.481 165.133 122.454C162.279 120.346 159.111 118.699 155.745 117.576L140.802 112.59C138.707 111.891 136.441 113.023 135.742 115.118Z" fill="#180041"/>
<path fill-rule="evenodd" clip-rule="evenodd" d="M78.5202 115.118C79.2195 117.214 78.0876 119.479 75.992 120.179L61.049 125.165C58.4798 126.022 56.0617 127.279 53.8834 128.888C46.6245 134.252 42.6965 143.019 43.5254 152.007L44.7887 165.705C44.9916 167.905 43.3728 169.852 41.173 170.055C38.9732 170.258 37.0254 168.639 36.8225 166.44L35.5592 152.741C34.4733 140.967 39.6194 129.481 49.1291 122.454C51.9829 120.346 55.1509 118.699 58.5167 117.576L73.4598 112.59C75.5553 111.891 77.8209 113.023 78.5202 115.118Z" fill="#180041"/>
<path fill-rule="evenodd" clip-rule="evenodd" d="M61.7623 48.8697C63.3722 48.4782 64.9947 49.4661 65.3861 51.076L69.2366 66.9137C69.628 68.5237 68.6402 70.1461 67.0302 70.5375C65.4203 70.9289 63.7978 69.9411 63.4064 68.3311L59.5559 52.4935C59.1645 50.8835 60.1523 49.2611 61.7623 48.8697Z" fill="#180041"/>
<path fill-rule="evenodd" clip-rule="evenodd" d="M152.517 32.3141C154.156 32.5553 155.29 34.0797 155.048 35.7189L150.118 69.2286C149.876 70.8678 148.352 72.0011 146.713 71.7599C145.074 71.5187 143.94 69.9943 144.182 68.3551L149.112 34.8454C149.353 33.2062 150.878 32.0729 152.517 32.3141Z" fill="#180041"/>
<path fill-rule="evenodd" clip-rule="evenodd" d="M159.899 78.3603C161.777 70.3119 154.441 63.1446 146.438 65.2097L144.599 65.6844L146.098 71.494L147.938 71.0194C151.575 70.0807 154.91 73.3385 154.056 76.9969L151.467 88.093C151.072 89.785 149.827 91.1508 148.179 91.7003L141.096 94.0612L142.993 99.7533L150.076 97.3924C153.703 96.1836 156.441 93.1789 157.31 89.4564L159.899 78.3603Z" fill="#180041"/>
<path fill-rule="evenodd" clip-rule="evenodd" d="M53.283 78.3603C51.405 70.3119 58.7415 63.1446 66.7439 65.2097L68.5833 65.6844L67.084 71.494L65.2446 71.0194C61.6071 70.0807 58.2724 73.3385 59.126 76.9969L61.7151 88.093C62.1099 89.785 63.3548 91.1508 65.0032 91.7003L72.0861 94.0612L70.1887 99.7533L63.1058 97.3924C59.4795 96.1836 56.7406 93.1789 55.8721 89.4564L53.283 78.3603Z" fill="#180041"/>
<path fill-rule="evenodd" clip-rule="evenodd" d="M141.65 79.4788L134.572 102.411C134.169 103.961 133.965 105.556 133.965 107.157V111.353C133.965 116.566 129.739 120.792 124.526 120.792L89.689 120.793C84.1661 120.793 79.689 116.315 79.689 110.793V107.632C79.689 105.718 79.4141 103.813 78.8728 101.977L72.5756 80.6153C71.0353 75.3901 70.0925 69.8796 71.409 64.5936C75.426 48.4653 89.2168 35.9157 106.827 35.9114C124.126 35.9071 139.563 48.9182 142.654 65.7789C143.488 70.3301 142.813 75.0005 141.65 79.4788ZM142.276 104.574L149.348 81.6653L149.393 81.49C150.681 76.5326 151.661 70.5489 150.523 64.3366C146.741 43.7027 128.013 27.9062 106.825 27.9114C85.0925 27.9167 68.4373 43.4235 63.6462 62.6602C61.8104 70.0309 63.2312 77.2092 64.9021 82.8773L71.1993 104.239C71.524 105.341 71.689 106.484 71.689 107.632V110.793C71.689 120.734 79.7479 128.793 89.689 128.793L124.526 128.792C134.157 128.792 141.965 120.985 141.965 111.353V107.157C141.965 106.287 142.07 105.419 142.276 104.574Z" fill="#180041"/>
<path fill-rule="evenodd" clip-rule="evenodd" d="M66.5971 63.1176C87.2845 39.9803 123.092 38.7719 145.292 60.4619L147.861 62.9714L143.668 67.2631L141.099 64.7536C121.344 45.4521 89.4793 46.5274 71.0699 67.1169L66.5971 63.1176Z" fill="#180041"/>
<path fill-rule="evenodd" clip-rule="evenodd" d="M137.269 109.354H77.3291V103.354H137.269V109.354Z" fill="#180041"/>
<path fill-rule="evenodd" clip-rule="evenodd" d="M141.517 96.4913H74.0255V90.4913H141.517V96.4913Z" fill="#180041"/>
<path d="M100.226 139H112.774C117.317 139 121 135.387 121 130.93V127H92V130.93C92 135.387 95.683 139 100.226 139Z" fill="#180041"/>
<path d="M115 127V130.963C115 132.088 114.061 133 112.902 133H100.098C98.9395 133 98 132.088 98 130.963V127H115Z" fill="#00ED92"/>
</svg>
